X:1
T:Title
%%score 1 { ( 2 4 ) | ( 3 5 ) }
L:1/8
M:4/4
K:Ab
V:1 treble nm="Akkordion"
V:2 bass nm="Grand Piano"
V:4 bass 
V:3 bass 
V:5 bass 
V:1
 z4 z2[Q:1/4=100] CD | E2 E>F E2 AB | c4 E2 Bc | d2 cB A2 GA |[M:3/4] B6 |[M:1/4] cd | %6
[M:4/4] e2 cB A2 AE | _G4 F2 FF | E2 dd c2 BB | A6 z2 | z8 | z8 | z8 |[M:7/8] z7 |[M:1/4] z2 | %15
[M:4/4] z8 | z8 | z8 |[M:3/4] z6 |] %19
V:2
 z4 z2 A,B, | z CCD A,,CE,[K:treble]D | z AAA[K:bass] A,,EE,A | z[K:treble] BEG .E2 GE | %4
[M:3/4] z G GG G2 |[M:1/4] AB |[M:4/4][K:bass] A,,4 z AEC | %7
 z[K:treble] _GGG[K:bass] z[K:treble] FFF | z E[K:treble]GG[K:bass] z E[K:treble]GG | z4 [EA]2 z2 | %10
 (3[CE][CE][CE] [CE]>[DF] [CE]2 CE | [CA]4 [CE]2 z2 | (3[CE][CE][CE] [EA]>B c2 B>A | %13
[M:7/8] e-e-e- e- e3 |[M:1/4] [Gd]2 |[M:4/4] c>c e>c A2 [EA]>[EG] | F>F [FA]>[DF] [CE]3 [CE] | %17
 (3[CE][CE][CE] [EA]>B c2 Ac |[M:3/4] [GB]4 [CA]2 |] %19
V:3
 z8 | z [E,A,][E,A,][F,A,] z [E,A,] z [G,B,] | z[K:treble] [CE][CE][CE] z [A,C] z [CE] | %3
 z [EG] z [DE] .C2 [EF]C |[M:3/4] z [B,DE] [B,D][B,DE] [B,DE]2 |[M:1/4] z2 | %6
[M:4/4] z cAE[K:bass] A,,4 | z [A,CE][A,CE][A,CE] z [A,D][A,D][A,D] | %8
 z2 [B,DE][B,D] z2[K:treble] [B,DE][B,DE] | z EAc C2 z2 | %10
 (3[A,,A,][A,,A,][A,,A,] [A,,A,]>[A,,A,] [A,,A,]2 A,C | (3A,A,A, A,>A, A,2 z2 | %12
 (3[A,,A,][A,,A,][A,,A,] [C,A,]>[E,G,E][K:treble] [A,E]2 .[G,B,E]>[G,B,F] | %13
[M:7/8][K:bass] B,2 C>C B,3 |[M:1/4] [E,B,]2 | %15
[M:4/4][K:treble] [A,A]>[A,A] [A,CA]>[A,A] [A,CE]2[K:bass] [C,A,]>[C,A,] | %16
 [D,A,]>[D,A,] [D,D]>[D,A,] [A,,A,]3 [A,,A,] | %17
 (3[A,,A,][A,,A,][A,,A,] [C,A,]>[E,G,E] [A,E]2 [A,CE][A,E] |[M:3/4] [E,D]4 [A,,A,]2 |] %19
V:4
 x8 | A,,4 z4[K:treble] | A,4[K:bass] z4 | E,4[K:treble] z4 |[M:3/4] E,6 |[M:1/4] x2 | %6
[M:4/4][K:bass] x8 | C,4[K:treble][K:bass] D,4[K:treble] | E,4[K:treble][K:bass] E,4[K:treble] | %9
 A,,6 z2 | x8 | x8 | x8 |[M:7/8] G2 A>A G3 |[M:1/4] x2 |[M:4/4] x8 | x8 | x8 |[M:3/4] x6 |] %19
V:5
 x8 | x8 | A,,4[K:treble] z4 | z4 E,4 |[M:3/4] x6 |[M:1/4] x2 |[M:4/4] x4[K:bass] x4 | x8 | %8
 x6[K:treble] x2 | x8 | x8 | x8 | x4[K:treble] x4 |[M:7/8][K:bass] E,-E,-E,- E,- E,3 |[M:1/4] x2 | %15
[M:4/4][K:treble] x6[K:bass] x2 | x8 | x8 |[M:3/4] x6 |] %19

